X: 4
T: I'll Fly Away
C: music: Albert E. Brumley
R: hymn
Z: 2021 John Chambers <jc:trillian.mit.edu>
M: C
L: 1/4
K: G
%%continueall
"^Verse"[|\
"G"[B2G2] [G2D2] | [D2B,2] [G2D2] | [BG]A [BG]c | [B2G2] A2 | "C"[G4-E4C4] | G2 EE | "G"[D4B,4] | z4 ||
w: 1.~Some glad morn-ing  when this life is o-ver I'll_ fly a-way
w: 2.~When the shad-ows of this life have grown*  I'll_ fly a-way
w: 3.~Oh how glad and hap-py  when we meet*       I'll_ fly a-way
w: 4.~Just a few more wear-y days and then*       I'll_ fly a-way
%
"G"[B2G2] [G2D2] | [D2B,2] [G2D2] | [BG]A [BG]c | [B4G4] | [B4-D4] | B2 "D"[AF][AF] | "G"[G4D4] | z4 |]
w: 1.~To a home on God's ce-les-tial shore     I'll_ fly a-way.
w: 2.~Like a bird from pri-son bars have flown I'll_ fly a-way.
w: 3.~No more cold iron shack-les on my feet   I'll_ fly a-way
w: 4.~To a land where joys shall ne-ver end    I'll_ fly a-way
%
"^Chorus"[| \
"G"[d4-B4G4] | d2 [BG][BG] | [d2B2][B2G2] | [A2F2] [G2D2] | "C"[G4-C4] | G2 EE | "G"[D4B,4] | z4 ||
w: I'll_ fly a-way oh glo-ry         I'll_ fly a-way.
"G"D2 E2 | [G2D2] GA | [BG]A [BG]c | [B4G4] | [B4-D4] | B2 "D"[AF][AF] | "G"[G4D4G,4] | z4 |]
w: When I die ha-le-lu-jah by and by I'll_ fly a-way.

%%sep 1 1 500
%%sep 1 1 500

